**kern	**kern	**dynam
*part1	*part1	*part1
*staff2	*staff1	*
*I"Piano	*	*
*clefF4	*clefG2	*
*k[f#c#g#d#a#]	*k[f#c#g#d#a#]	*
=1	=1	=1
((2FF##X: 2F##X:	2c#: 2en: 2a#: 2cc#:	.
2GG#)) 2G#	2B: 2d#: 2g#: 2b:	.
=	=	=
*	*^	*
6C# 6F#X	(2a#	1B 1d#	.
(6CC#	.	.	.
6C#	.	.	.
6F#	2g#)	.	.
6B	.	.	.
6d#)	.	.	.
=	=	=	=
(6f#	2ryy	2rff	.
6c#	.	.	.
6f#	.	.	.
6c#	((4dd# 4gg#	2b	.
6e#X	.	.	.
.	4cc#)) 4aa#	.	.
6c#)	.	.	.
=	=	=	=
(6d#	[1f# [1ff#	(2cc#	.
6F#	.	.	.
6f#	.	.	.
6F#	.	[2b)	.
6f#	.	.	.
6F#	.	.	.
=	=	=	=
6dn	1f#] 1ff#]	4b]	.
6F#	.	.	.
.	.	4a#	.
6f#	.	.	.
6F#	.	4cc#	.
6f#	.	.	.
.	.	4b	.
6F#)	.	.	.
=	=	=	=
(6FFF#X'	[1f# [1ff#	(2b	ppp
6FF#'	.	.	.
6C#'	.	.	.
6F#'	.	(2a#)	.
6c#'	.	.	.
6f#')	.	.	.
=	=	=	=
1ryy	4cc#	1f#]) 1a# 1ff#]	.
.	4re	.	.
.	2re	.	.
*	*v	*v	*
==	==	==
*-	*-	*-
!!!system-decoration: {(s1,s2)}
